emqx/assets/logos/emqx-with-watermark.svg

<svg width="1000" height="1000" viewBox="0 0 1000 1000" fill="none" xmlns="http://www.w3.org/2000/svg">
<path d="M540 506.75H487.29V549.36H549.4V567.29H464.83V432.71H548.75V450.71H487.29V488.71H540V506.75Z" fill="#282828"/>
<path d="M637.76 536.23H638.31L677.23 432.71H705.87V567.29H683.41V470.61L682.86 470.52L645.8 567.29H630.36L592.65 468.67L592.09 468.85V567.29H569.64V432.71H599.12L637.76 536.23Z" fill="#282828"/>
<path d="M840 506.1C840.042 512.71 839.064 519.288 837.1 525.6C835.248 531.512 832.418 537.072 828.73 542.05L848.6 561.83L833.6 575.23L813.6 555.55C809.305 558.097 804.673 560.026 799.84 561.28C794.738 562.592 789.488 563.244 784.22 563.22C768.133 563.22 755.037 557.813 744.93 547C734.823 536.187 729.773 522.553 729.78 506.1V481.88C729.78 465.493 734.813 451.877 744.88 441.03C754.947 430.183 768.06 424.763 784.22 424.77C800.66 424.77 814.06 430.19 824.42 441.03C834.78 451.87 839.973 465.487 840 481.88V506.1ZM817.54 481.7C817.54 470.493 814.54 461.28 808.54 454.06C802.54 446.84 794.44 443.237 784.24 443.25C774.313 443.25 766.5 446.853 760.8 454.06C755.1 461.267 752.253 470.48 752.26 481.7V506.1C752.26 517.433 755.123 526.723 760.85 533.97C766.577 541.217 774.373 544.837 784.24 544.83C794.52 544.83 802.637 541.223 808.59 534.01C814.543 526.797 817.513 517.493 817.5 506.1L817.54 481.7Z" fill="#282828"/>
<path d="M918.94 482.44L947.31 432.71H973.94L932.53 499.44L975.53 567.29H948.53L919.32 516.73L890.1 567.29H863.49L905.81 499.44L864.41 432.71H890.84L918.94 482.44Z" fill="#282828"/>
<path fill-rule="evenodd" clip-rule="evenodd" d="M259.54 428.12H126.54C126.35 428.12 126.17 428.12 125.98 428.12C124.312 428.073 122.652 428.36 121.097 428.966C119.542 429.572 118.124 430.483 116.928 431.646C115.731 432.809 114.78 434.201 114.131 435.738C113.481 437.275 113.147 438.926 113.147 440.595C113.147 442.264 113.481 443.915 114.131 445.452C114.78 446.989 115.731 448.381 116.928 449.544C118.124 450.707 119.542 451.618 121.097 452.224C122.652 452.829 124.312 453.117 125.98 453.07C126.17 453.07 126.35 453.07 126.54 453.07H259.54C261.208 453.117 262.868 452.829 264.423 452.224C265.978 451.618 267.396 450.707 268.592 449.544C269.789 448.381 270.74 446.989 271.389 445.452C272.039 443.915 272.373 442.264 272.373 440.595C272.373 438.926 272.039 437.275 271.389 435.738C270.74 434.201 269.789 432.809 268.592 431.646C267.396 430.483 265.978 429.572 264.423 428.966C262.868 428.36 261.208 428.073 259.54 428.12Z" fill="#5E4EFF"/>
<path fill-rule="evenodd" clip-rule="evenodd" d="M259.54 546.94H126.54H125.98C122.673 546.94 119.501 548.254 117.162 550.592C114.824 552.931 113.51 556.103 113.51 559.41C113.51 562.717 114.824 565.889 117.162 568.228C119.501 570.566 122.673 571.88 125.98 571.88C126.17 571.88 126.35 571.88 126.54 571.88H259.54C262.847 571.88 266.019 570.566 268.358 568.228C270.696 565.889 272.01 562.717 272.01 559.41C272.01 556.103 270.696 552.931 268.358 550.592C266.019 548.254 262.847 546.94 259.54 546.94Z" fill="#5E4EFF"/>
<path fill-rule="evenodd" clip-rule="evenodd" d="M224.6 500C224.593 496.887 223.425 493.889 221.324 491.591C219.223 489.294 216.34 487.864 213.24 487.58V487.53H99.18C99 487.53 98.82 487.53 98.63 487.53C95.3228 487.53 92.151 488.844 89.8124 491.182C87.4738 493.521 86.16 496.693 86.16 500C86.16 503.307 87.4738 506.479 89.8124 508.818C92.151 511.156 95.3228 512.47 98.63 512.47C98.82 512.47 99 512.47 99.18 512.47H213.24V512.42C216.34 512.136 219.223 510.706 221.324 508.409C223.425 506.111 224.593 503.113 224.6 500Z" fill="#5E4EFF"/>
<path d="M179.09 673.32C173.211 673.324 167.435 671.783 162.34 668.85L41.23 598.92C36.1464 595.973 31.925 591.744 28.9874 586.655C26.0499 581.567 24.4991 575.796 24.49 569.92V430.08C24.4991 424.203 26.051 418.431 28.9904 413.342C31.9299 408.253 36.1538 404.025 41.24 401.08L162.34 331.15C167.435 328.221 173.208 326.68 179.085 326.68C184.962 326.68 190.735 328.221 195.83 331.15L316.94 401.08C322.025 404.025 326.247 408.254 329.185 413.343C332.123 418.432 333.673 424.204 333.68 430.08V569.93C333.673 575.806 332.123 581.578 329.185 586.667C326.247 591.756 322.025 595.985 316.94 598.93L195.83 668.85C190.739 671.782 184.965 673.324 179.09 673.32ZM179.09 349.88C177.285 349.878 175.511 350.354 173.95 351.26L52.84 421.18C51.2797 422.084 49.9839 423.382 49.0819 424.944C48.18 426.506 47.7035 428.277 47.7 430.08V569.93C47.7042 571.732 48.1812 573.501 49.0831 575.061C49.985 576.621 51.2805 577.917 52.84 578.82L174 648.75C175.564 649.649 177.336 650.123 179.14 650.123C180.944 650.123 182.716 649.649 184.28 648.75L305.38 578.83C306.94 577.927 308.235 576.631 309.137 575.071C310.039 573.511 310.516 571.742 310.52 569.94V430.08C310.516 428.278 310.041 426.508 309.141 424.946C308.241 423.385 306.948 422.086 305.39 421.18L184.22 351.25C182.659 350.353 180.89 349.881 179.09 349.88Z" fill="#5E4EFF"/>
</svg>

<svg id="图层_1" data-name="图层 1" xmlns="http://www.w3.org/2000/svg" viewBox="0 0 1000 1000"><defs><style>.cls-1{fill:#282828;}.cls-2,.cls-3{fill:#00b173;}.cls-2{fill-rule:evenodd;}</style></defs><path class="cls-1" d="M540,506.75H487.29v42.61H549.4v17.93H464.83V432.71h83.92v18H487.29v38H540Z"/><path class="cls-1" d="M637.76,536.23h.55l38.92-103.52h28.64V567.29H683.41V470.61l-.55-.09L645.8,567.29H630.36l-37.71-98.62-.56.18v98.44H569.64V432.71h29.48Z"/><path class="cls-1" d="M840,506.1a64.28,64.28,0,0,1-2.9,19.5,55.51,55.51,0,0,1-8.37,16.45l19.87,19.78-15,13.4-20-19.68a53.13,53.13,0,0,1-13.76,5.73,61.61,61.61,0,0,1-15.62,1.94q-24.13,0-39.29-16.22t-15.15-40.9V481.88q0-24.58,15.1-40.85t39.34-16.26q24.66,0,40.2,16.26T840,481.88Zm-22.46-24.4q0-16.81-9-27.64t-24.3-10.81q-14.89,0-23.44,10.81t-8.54,27.64v24.4q0,17,8.59,27.87t23.39,10.86q15.42,0,24.35-10.82t8.91-27.91Z"/><path class="cls-1" d="M918.94,482.44l28.37-49.73h26.63l-41.41,66.73,43,67.85h-27l-29.21-50.56L890.1,567.29H863.49l42.32-67.85-41.4-66.73h26.43Z"/><g id="编组"><path id="Fill-4" class="cls-2" d="M259.54,428.12h-133v0c-.19,0-.37,0-.56,0a12.48,12.48,0,1,0,0,24.95c.19,0,.37,0,.56,0v0h133a12.48,12.48,0,1,0,0-24.95"/><path id="Fill-6" class="cls-2" d="M259.54,546.94h-133v0l-.56,0a12.47,12.47,0,1,0,0,24.94c.19,0,.37,0,.56,0v0h133a12.47,12.47,0,1,0,0-24.94"/><path id="Fill-8" class="cls-2" d="M224.6,500a12.5,12.5,0,0,0-11.36-12.42v-.05H99.18v0c-.18,0-.36,0-.55,0a12.47,12.47,0,1,0,0,24.94c.19,0,.37,0,.55,0v0H213.24v-.05A12.5,12.5,0,0,0,224.6,500"/></g><path class="cls-3" d="M179.09,673.32a33.53,33.53,0,0,1-16.75-4.47L41.23,598.92a33.58,33.58,0,0,1-16.74-29V430.08a33.57,33.57,0,0,1,16.75-29l121.1-69.93a33.6,33.6,0,0,1,33.49,0l121.11,69.93a33.56,33.56,0,0,1,16.74,29V569.93a33.56,33.56,0,0,1-16.74,29L195.83,668.85A33.5,33.5,0,0,1,179.09,673.32Zm0-323.44a10.22,10.22,0,0,0-5.14,1.38L52.84,421.18a10.31,10.31,0,0,0-5.14,8.9V569.93a10.3,10.3,0,0,0,5.14,8.89L174,648.75a10.31,10.31,0,0,0,10.28,0l121.1-69.92a10.3,10.3,0,0,0,5.14-8.89V430.08a10.32,10.32,0,0,0-5.13-8.9L184.22,351.25A10.3,10.3,0,0,0,179.09,349.88Z"/></svg>
